X:1
T: Miss Macpherson of Giliston
C:
R:Reel
Q: 232
K:C
M:4/4
L:1/8
|:c2 cG c2 cG|c2 cG d2 de|c2 cG Ec GE|FD B,G, C2 C2|
c2 cG c2 cG|c2 cG d2 de|c2 cG Ec GE|FD B,G, C2 C2|
ge ge af af|ge ce d2 ef|ge ge af af|ec GB c2 ce|
ec ec af af|ec ge d2 df|eg fa ge dc|BG AB c2 c2:|
